Newaita-dark/actions/16/draw-eraser.svg

<svg height="16" viewBox="0 0 16 16" width="16" xmlns="http://www.w3.org/2000/svg"><path d="m11.445312 2.214844c-.257812-.257813-.675781-.257813-.933593 0l-8.1875 8.1875c-.386719.386718-.386719 1.015625 0 1.402344l1.871093 1.871093c.390626.390625 1.015626.390625 1.402344 0l1.871094-1.871093 6.316406-6.3125c.257813-.261719.257813-.679688 0-.9375zm.703126 2.574218c.128906.128907.128906.339844 0 .46875l-2.808594 2.804688-1.402344-1.402344 2.808594-2.808594c.128906-.128906.335937-.128906.464844 0zm-4.679688 2.339844 1.40625 1.402344-.9375.933594-1.402344-1.402344zm-1.402344 1.402344 1.402344 1.402344-.933594.9375-1.402344-1.40625zm0 0" fill="#e0e0e0"/></svg>

<?xml version="1.0" encoding="UTF-8"?>
<svg xmlns="http://www.w3.org/2000/svg" xmlns:xlink="http://www.w3.org/1999/xlink" width="16px" height="16px" viewBox="0 0 16 16" version="1.1">
<g id="surface1">
<path style=" stroke:none;fill-rule:nonzero;fill:rgb(87.843138%,87.843138%,87.843138%);fill-opacity:1;" d="M 11.445312 2.214844 C 11.1875 1.957031 10.769531 1.957031 10.511719 2.214844 L 2.324219 10.402344 C 1.9375 10.789062 1.9375 11.417969 2.324219 11.804688 L 4.195312 13.675781 C 4.585938 14.066406 5.210938 14.066406 5.597656 13.675781 L 7.46875 11.804688 L 13.785156 5.492188 C 14.042969 5.230469 14.042969 4.8125 13.785156 4.554688 Z M 12.148438 4.789062 C 12.277344 4.917969 12.277344 5.128906 12.148438 5.257812 L 9.339844 8.0625 L 7.9375 6.660156 L 10.746094 3.851562 C 10.875 3.722656 11.082031 3.722656 11.210938 3.851562 Z M 7.46875 7.128906 L 8.875 8.53125 L 7.9375 9.464844 L 6.535156 8.0625 Z M 6.066406 8.53125 L 7.46875 9.933594 L 6.535156 10.871094 L 5.132812 9.464844 Z M 6.066406 8.53125 "/>
</g>
</svg>
